X:1
T:Polka
C:traditionell
R:polka
%%textfont Helvetica-Narrow 10pt
%%begintext align
S:noten-material (lose kopien) von Elisabeth und Christoph Huspeka vermutlich von (T.Spurny)
%%endtext
Z:abc transcription Simon Wascher
M:2/4
L:1/8
K:G
B2 B/A/B/c/ | dB dB | cA A/G/A | BG G2 |
B2 B/A/B/c/ | dB dB | cA AB/A/ | G4 :|
|:\
DF Ac | Be d2 | cA AG/A/ | BG G2 |
DF Ac | Be d2 | cA AB/A/ | G4 :|
%%wordsfont Times-Italic 11pt
W:aus Simon Waschers TradArchiv
